X: 2138
Q: "Reel."
M: C
L: 1/8
K: D
uB |\
uA |\
(vde)fd (ugf)ec | (de)fd (ec)BA |
(de)fd (gf)eg | (f/g/a) (ef) d3f |\
defd gfec | defd ecBA |\
defd gfeg | faef d3 |]


